static/img/in-field/radio-btn-off-disabled.svg

<svg fill="none" height="56" viewBox="0 0 56 56" width="56" xmlns="http://www.w3.org/2000/svg"><path clip-rule="evenodd" d="m14.75 27.5c0-7.59 6.16-13.75 13.75-13.75s13.75 6.16 13.75 13.75-6.16 13.75-13.75 13.75-13.75-6.16-13.75-13.75zm2.75 0c0 6.0775 4.9225 11 11 11s11-4.9225 11-11-4.9225-11-11-11-11 4.9225-11 11z" fill="#90939f" fill-rule="evenodd" opacity=".4"/></svg>

<svg width="56" height="56" viewBox="0 0 56 56" fill="none" xmlns="http://www.w3.org/2000/svg"><g opacity=".4"><path fill-rule="evenodd" clip-rule="evenodd" d="M14.75 27.5C14.75 19.91 20.91 13.75 28.5 13.75C36.09 13.75 42.25 19.91 42.25 27.5C42.25 35.09 36.09 41.25 28.5 41.25C20.91 41.25 14.75 35.09 14.75 27.5ZM17.5 27.5C17.5 33.5775 22.4225 38.5 28.5 38.5C34.5775 38.5 39.5 33.5775 39.5 27.5C39.5 21.4225 34.5775 16.5 28.5 16.5C22.4225 16.5 17.5 21.4225 17.5 27.5Z" fill="#90939F"/></g></svg>
